X:1
T:James Gibb editions
T:There is an hour of peaceful rest - Barnby
%%score [ ( 1 2 ) ( 3 4 ) ]
L:1/8
Q:1/4=66
M:4/4
K:Ab
V:1 treble nm="Midi_74"
V:2 treble 
V:3 bass nm="Midi_74"
V:4 bass 
V:1
"^smooth and slow\n""^87. 887""^There is an hour of peaceful rest""^Joseph Barnby\n(1838-96)""^William Bingham Tappan\n(1794-1849)"!mf! A2 | %1
 G2 F2 E2 c2 | B2 A2 G2 || B2 | e2 AG F2 F2 | E6 ||!mf! c2 | B2 =A2 B2 d2 | c2 B2 A2 ||[M:4/4] d2 | %10
 c2 B2 A2 f2 | e2 =d2 c2 || e2 | AB"^rit." c2 F2 G2 | A6 || A4 A4 |] %16
V:2
 C2 | D2 D2 E2 E2 | F2 F2 G2 || E2 | E2 E2 E2 =D2 | E6 || E2 | D2 C2 B,2 F2 | =E2 C2 C2 || %9
[M:4/4] F2 | E2 D2 C2 A2 | G3 F EF || _G2 | F2 E2 =D2 _D2 | C6 || D4 C4 |] %16
V:3
 E,2 | E,2 F,G, A,2 A,G, |"^cresc." F,2 DC B,2 || G,2 | G,2 A,B, C2 B,A, | G,6 || G,2 | %7
 F,2 F,2 F,2 B,_A, | G,2 G,2 A,2 || %9
[M:4/4]"^cresc.""^1 There is an hour of peaceful rest,\nTo mourning wand’rers giv'n;\nThere is a joy for souls distrest,\nA balm for ev'ry wounded breast:\n’Tis found above - in heav’n.\n\n2 There is a home for weary souls,\nBy sin and sorrow driv'n,\nWhen tossed on life’s tempestuous shoals,\nWhen storms arise and ocean rolls,\nAnd all is drear - but heav’n." A,2 | %10
 G,2 G,2 A,2 C2 | =B,2 B,2 C2 || %12
"^dim.""^3 There faith lifts up the tearless eye,\nTo brighter prospects giv'n,\nAnd views the tempest passing by,\nThe evening shadows quickly fly,\nAnd all serene - in heavn.\n\n4 There, fragrant flow'rs immortal bloom,\nAnd joys supreme are giv'n;\nThere rays divine disperse the gloom;\nBeyond the confines of the tomb\nAppears the dawn of heavn." C!courtesy!_B, | %13
 A,2 A,2 A,2 G,F, | E,6 || F,4 E,4 |] %16
V:4
 A,,2 | B,,2 B,,2 C,2 C,2 | D,2 D,2 E,2 || D,2 | C,2 C,B,, A,,2 B,,2 | E,6 || C,2 | %7
 F,3 E, D,2 B,,2 | C,2 =E,2 F,2 ||[M:4/4] D,2 | E,2 =E,2 F,2 =D,2 | G,2 G,2 C,2 || A,,2 | %13
 D,2 A,,2 B,,2 E,2 | A,,6 || D,4 A,,4 |] %16

